X: 468
U:~=!turn!
M:C
L:1/8
K:Bb
d | Bfd<f B<fd<f FcA<c F<cA<c | B<fd<f B<fd<f | (b/a/g/f/) ge dB-B ::
!f!F | D>B,F>B, G>B,F>B, | D>B, (G/F/E/D/ E)C-C>F | D>B,F>B, G>B,F>A | (BGTFE) DB,-B, ::
!p!g | f<B (d/c/B) f>Bb>B | f<B (e/d/c/B/) cGG>e | f<B (e/d/).c/.B/ f<Bb>B | .AT.G(FE) DB,-B, :|


